packages/icons/src/battery-exclamation.svg

<svg width="24" height="24" viewBox="0 0 24 24" fill="none" xmlns="http://www.w3.org/2000/svg">
<path fill-rule="evenodd" clip-rule="evenodd" d="M7.2875 21.7125C7.47917 21.9042 7.71667 22 8 22H16C16.2833 22 16.5208 21.9042 16.7125 21.7125C16.9042 21.5208 17 21.2833 17 21V5C17 4.71667 16.9042 4.47917 16.7125 4.2875C16.5208 4.09583 16.2833 4 16 4H14C14 3.44772 13.5523 3 13 3H11C10.4477 3 10 3.44772 10 4H8C7.71667 4 7.47917 4.09583 7.2875 4.2875C7.09583 4.47917 7 4.71667 7 5V21C7 21.2833 7.09583 21.5208 7.2875 21.7125ZM15 6H9V20H15V6Z" fill="black"/>
<path d="M11 8H13V14H11V8Z" fill="black"/>
<path d="M11 16H13V18H11V16Z" fill="black"/>
</svg>

<svg xmlns="http://www.w3.org/2000/svg" width="24" height="24" fill="none" viewBox="0 0 24 24">
  <path fill="#000" fill-rule="evenodd" d="M7.287 21.712c.192.192.43.288.713.288h8c.283 0 .52-.096.712-.288A.968.968 0 0 0 17 21V5a.967.967 0 0 0-.288-.713A.968.968 0 0 0 16 4h-2a1 1 0 0 0-1-1h-2a1 1 0 0 0-1 1H8a.968.968 0 0 0-.713.287A.968.968 0 0 0 7 5v16c0 .283.096.52.287.712ZM15 6H9v14h6V6Z" clip-rule="evenodd"/>
  <path fill="#000" d="M11 8h2v6h-2V8Zm0 8h2v2h-2v-2Z"/>
</svg>
